lib/svg/flame.svg

<svg xmlns="http://www.w3.org/2000/svg" width="12" height="16" viewBox="0 0 12 16"><path d="M5.05.31c.81 2.17.41 3.38-.52 4.31C3.55 5.67 1.98 6.45.9 7.98c-1.45 2.05-1.7 6.53 3.53 7.7-2.2-1.16-2.67-4.52-.3-6.61-.61 2.03.53 3.33 1.94 2.86 1.39-.47 2.3.53 2.27 1.67-.02.78-.31 1.44-1.13 1.81 3.42-.59 4.78-3.42 4.78-5.56 0-2.84-2.53-3.22-1.25-5.61-1.52.13-2.03 1.13-1.89 2.75.09 1.08-1.02 1.8-1.86 1.33-.67-.41-.66-1.19-.06-1.78C8.18 5.31 8.68 2.45 5.05.32L5.03.3l.02.01z"/></svg>

<?xml version="1.0" encoding="UTF-8" standalone="no"?>
<svg width="12px" height="16px" viewBox="0 0 12 16" version="1.1" xmlns="http://www.w3.org/2000/svg" xmlns:xlink="http://www.w3.org/1999/xlink">
    <!-- Generator: Sketch 3.8.3 (29802) - http://www.bohemiancoding.com/sketch -->
    <title>flame</title>
    <desc>Created with Sketch.</desc>
    <defs></defs>
    <g id="Octicons" stroke="none" stroke-width="1" fill="none" fill-rule="evenodd">
        <g id="flame" fill="#000000">
            <path d="M5.05,0.31 C5.86,2.48 5.46,3.69 4.53,4.62 C3.55,5.67 1.98,6.45 0.9,7.98 C-0.55,10.03 -0.8,14.51 4.43,15.68 C2.23,14.52 1.76,11.16 4.13,9.07 C3.52,11.1 4.66,12.4 6.07,11.93 C7.46,11.46 8.37,12.46 8.34,13.6 C8.32,14.38 8.03,15.04 7.21,15.41 C10.63,14.82 11.99,11.99 11.99,9.85 C11.99,7.01 9.46,6.63 10.74,4.24 C9.22,4.37 8.71,5.37 8.85,6.99 C8.94,8.07 7.83,8.79 6.99,8.32 C6.32,7.91 6.33,7.13 6.93,6.54 C8.18,5.31 8.68,2.45 5.05,0.32 L5.03,0.3 L5.05,0.31 Z" id="Shape"></path>
        </g>
    </g>
</svg>
